icons/job/ranged/DNC.svg

<svg viewBox="0 0 12.7 12.7" xmlns="http://www.w3.org/2000/svg">
  <g>
    <path d="m 6.3499998,1.1833715 c -0.1401901,0 -0.3668654,0.3002384 -0.6093018,0.7107875 C 5.4378694,2.3966955 4.5693262,3.1244507 3.7931429,3.3453474 2.5564945,3.7276721 1.6300795,4.7055402 2.3960527,6.3898836 3.1539956,7.9612617 4.7937245,8.9993594 5.5795862,10.57602 c 0.2779445,0.544804 0.5314452,0.940608 0.7704136,0.940608 0.2389684,0 0.4924693,-0.395804 0.7704135,-0.940608 C 7.9062748,8.9993594 9.5460045,7.9612617 10.303947,6.3898836 11.06992,4.7055402 10.143506,3.7276721 8.9068571,3.3453474 8.1306735,3.1244507 7.2621306,2.3966955 6.9593018,1.894159 6.7168656,1.4836099 6.4901899,1.1833715 6.3499998,1.1833715 Z m 0,1.7868379 c 0.104098,0 0.2187911,0.1041594 0.5153203,0.3818525 C 7.235932,3.6991268 7.2897284,3.7168014 6.9794409,3.9743937 6.5302629,4.3433124 6.3744572,5.3906639 7.1073823,6.131236 7.7038039,6.7338798 7.9030501,6.5265352 7.8351492,5.7391196 7.8083508,5.0743373 8.1502279,4.4942434 8.7030977,4.4498307 9.2842598,4.4360609 9.8143857,5.2684439 9.1722175,6.3045886 8.5595284,7.2119454 7.3004908,8.1484085 6.8396528,8.7307398 6.6079656,9.0049231 6.4251147,9.2385573 6.3488152,9.2385573 6.2733058,9.2385573 6.0920341,9.0049231 5.8603469,8.7307398 5.399509,8.1484085 4.1404707,7.2119454 3.5277827,6.3045886 2.885614,5.2684439 3.4157394,4.4360617 3.9969019,4.4498307 4.5497724,4.4942427 4.8916441,5.0743396 4.864851,5.7391196 4.7969485,6.5265367 4.9961955,6.7338798 5.5926175,6.131236 6.3255428,5.3906639 6.1697363,4.3433124 5.7205589,3.9743937 5.4102711,3.7168014 5.4640672,3.6991283 5.8346796,3.3520619 6.1312083,3.0743703 6.2459022,2.9702094 6.3499998,2.9702094 Z" />
  </g>
</svg>

<svg viewBox="0 0 12.7 12.7" xmlns="http://www.w3.org/2000/svg"><path d="M6.35 1.183c-.14 0-.367.3-.61.711-.302.503-1.17 1.23-1.947 1.451-1.237.383-2.163 1.36-1.397 3.045C3.154 7.96 4.794 9 5.58 10.576c.278.545.531.94.77.94s.492-.395.77-.94c.786-1.577 2.426-2.615 3.184-4.186.766-1.684-.16-2.662-1.397-3.045-.776-.22-1.645-.948-1.948-1.45-.242-.411-.469-.712-.609-.712Zm0 1.787c.104 0 .219.104.515.382.37.347.425.365.114.622-.449.37-.605 1.417.128 2.157.597.603.796.396.728-.392-.027-.665.315-1.245.868-1.29.581-.013 1.111.82.47 1.856C8.56 7.212 7.3 8.148 6.84 8.73c-.232.274-.415.508-.491.508-.076 0-.257-.234-.489-.508-.46-.583-1.72-1.52-2.332-2.426-.642-1.037-.112-1.869.469-1.855.553.044.895.624.868 1.29-.068.787.131.994.728.391.733-.74.577-1.788.128-2.157-.31-.257-.257-.275.114-.622.296-.278.41-.382.515-.382Z"/></svg>
